svg/u1f414.svg

<svg viewBox="0 0 128 128" xmlns="http://www.w3.org/2000/svg">
  <path d="M113.97,96.23L37.1,98.91c0,0-3,13.81-2.25,16.05c0.28,0.84,9.85-8.45,9.85-8.45 s11.97,14.78,12.81,14.64c0.84-0.14,10-9.43,10-9.43s13.66,11.4,14.64,11.4s9.29-12.11,9.29-12.11s10.56,7.6,11.26,7.46 c0.7-0.14,7.88-11.54,7.88-11.54s11.22,3.33,12.34,3.05C124.06,109.7,117.91,97.78,113.97,96.23z" fill="#B1B1B1"/>
  <path d="M33.16,54.98l-0.66-17.69l11.97-11.54l26.56,0.38c0,0,7.04,6.34,8.87,7.46 c1.83,1.13,8.24,4.38,19.83,18.59c6.17,7.57,11.15,20.26,12.55,23.64s10.84,33.08,10.84,33.93s-11.54-9.43-12.25-8.87 c-0.7,0.56-7.46,13.51-8.31,13.8c-0.84,0.28-10.28-9.15-11.26-8.73s-8.73,13.8-9.29,13.8S69.91,105.38,68.5,105.1 c-1.41-0.28-10,11.68-11.12,11.68c-1.13,0-11.4-16.61-12.67-16.61s-9.2,13.05-9.9,13.61s-2.21-20.51-2.49-23.04 S33.16,54.98,33.16,54.98z" fill="#E0E0E0"/>
  <path d="M59.44,83.06c-1.07,0-2.06-0.69-2.39-1.77l-1.78-5.82c-0.4-1.32,0.34-2.72,1.66-3.12 c1.32-0.4,2.72,0.34,3.12,1.66l1.78,5.82c0.4,1.32-0.34,2.72-1.66,3.12C59.93,83.02,59.68,83.06,59.44,83.06z" fill="#FFFFFF"/>
  <path d="M79.81,89.63c-0.98,0-1.91-0.58-2.31-1.54l-2.82-6.76c-0.53-1.28,0.07-2.74,1.35-3.27 c1.28-0.53,2.74,0.07,3.27,1.35l2.82,6.76c0.53,1.28-0.07,2.74-1.35,3.27C80.46,89.57,80.13,89.63,79.81,89.63z" fill="#FFFFFF"/>
  <path d="M93.32,81.18c-0.94,0-1.83-0.53-2.26-1.43l-2.53-5.35c-0.59-1.25-0.06-2.74,1.19-3.33 c1.25-0.59,2.74-0.06,3.33,1.19l2.53,5.35c0.59,1.25,0.06,2.74-1.19,3.33C94.05,81.1,93.68,81.18,93.32,81.18z" fill="#FFFFFF"/>
  <path d="M77.18,63.91c-0.79,0-1.57-0.38-2.06-1.08l-4.6-6.66c-0.78-1.14-0.5-2.69,0.64-3.48 c1.14-0.79,2.69-0.5,3.48,0.64l4.6,6.66c0.78,1.14,0.5,2.69-0.64,3.48C78.17,63.77,77.67,63.91,77.18,63.91z" fill="#FFFFFF"/>
  <path d="M44.43,69.48c3,0.23,29.14-4.04,19.8-24.68c-7.22-15.97-27.5-1.97-31.25,3.57 c-0.68,1.01-1.92,16.89-1.92,16.89S22.04,78.21,25,85.39s11.74,8.54,17.03,2.39C46.4,82.72,44.85,71.88,44.43,69.48z" fill="#FF615E"/>
  <path d="M35.13,38.23c2.08-3.22,8.87-10,19.57-10.42c10.7-0.42,16.19,1.69,18.16,2.53 c1.97,0.84,7.6,3.66,7.6,3.66s10.58-5,10.16-15.98S78.92,6.27,74.55,8.67s-5.07,5.91-8.31,6.05c-3.24,0.14-5.77-7.74-15.91-3.8 c-8.63,3.36-5.85,11.63-9.01,13.66c-3.52,2.25-11.12-2.53-16.47,4.93s1.27,14.22,2.67,15.35c1.41,1.13,6.05,3.71,6.05,3.71 S32.04,43.02,35.13,38.23z" fill="#FF615E"/>
  <path d="M41.42,65.07c1.3-0.69,0.28-6.29-2.91-10.7s-5.63-6.29-5.63-6.29s-11.54,2.63-18.96,6.76 c-4.14,2.31-9.24,7.37-8.68,9.24c0.56,1.88,11.19,1.39,20.13,1.13C34.85,64.93,39.83,65.92,41.42,65.07z" fill="#FBBB02"/>
  <path d="M5.19,63.34c0,0,10.75-0.75,15.58-1.41c4.83-0.66,7.96-1.11,9.81-1.55c1.97-0.47,6.19-1.69,6.19-1.69 l0.28,1.97c0,0-10.23,2.3-16.14,2.82c-5.2,0.45-13.7,1.08-14.41,1.08s-1.13-0.33-1.31-0.56S5.19,63.34,5.19,63.34z" fill="#FE5F12"/>
  <ellipse cx="37.83" cy="59.51" fill="#FE5F12" rx="1.62" ry="1.67"/>
  <path d="M56.15,54.6c-0.76,3.42-3.84,5.78-7.78,4.37c-2.93-1.05-4.01-4.6-2.9-7.92s4.29-4.85,7.34-4.23 C55.88,47.43,56.91,51.18,56.15,54.6z" fill="#2C2B2C"/>
</svg>

<svg viewBox="0 0 128 128" xmlns="http://www.w3.org/2000/svg">
  <defs/>
  <path d="M113.97,96.23 L37.1,98.91 C37.1,98.91 34.1,112.72 34.85,114.96 C35.13,115.8 44.7,106.51 44.7,106.51 C44.7,106.51 56.67,121.29 57.51,121.15 C58.35,121.01 67.51,111.72 67.51,111.72 C67.51,111.72 81.17,123.12 82.15,123.12 C83.13,123.12 91.44,111.01 91.44,111.01 C91.44,111.01 102,118.61 102.7,118.47 C103.4,118.33 110.58,106.93 110.58,106.93 C110.58,106.93 121.8,110.26 122.92,109.98 C124.06,109.7 117.91,97.78 113.97,96.23 Z" fill="#B1B1B1"/>
  <path d="M33.16,54.98 L32.5,37.29 L44.47,25.75 L71.03,26.13 C71.03,26.13 78.07,32.47 79.9,33.59 C81.73,34.72 88.14,37.97 99.73,52.18 C105.9,59.75 110.88,72.44 112.28,75.82 C113.68,79.2 123.12,108.9 123.12,109.75 C123.12,110.6 111.58,100.32 110.87,100.88 C110.17,101.44 103.41,114.39 102.56,114.68 C101.72,114.96 92.28,105.53 91.3,105.95 C90.32,106.37 82.57,119.75 82.01,119.75 C81.45,119.75 69.91,105.38 68.5,105.1 C67.09,104.82 58.5,116.78 57.38,116.78 C56.25,116.78 45.98,100.17 44.71,100.17 C43.44,100.17 35.51,113.22 34.81,113.78 C34.11,114.34 32.6,93.27 32.32,90.74 C32.04,88.21 33.16,54.98 33.16,54.98 Z" fill="#E0E0E0"/>
  <path d="M59.44,83.06 C58.37,83.06 57.38,82.37 57.05,81.29 L55.27,75.47 C54.87,74.15 55.61,72.75 56.93,72.35 C58.25,71.95 59.65,72.69 60.05,74.01 L61.83,79.83 C62.23,81.15 61.49,82.55 60.17,82.95 C59.93,83.02 59.68,83.06 59.44,83.06 Z" fill="#FFFFFF"/>
  <path d="M79.81,89.63 C78.83,89.63 77.9,89.05 77.5,88.09 L74.68,81.33 C74.15,80.05 74.75,78.59 76.03,78.06 C77.31,77.53 78.77,78.13 79.3,79.41 L82.12,86.17 C82.65,87.45 82.05,88.91 80.77,89.44 C80.46,89.57 80.13,89.63 79.81,89.63 Z" fill="#FFFFFF"/>
  <path d="M93.32,81.18 C92.38,81.18 91.49,80.65 91.06,79.75 L88.53,74.4 C87.94,73.15 88.47,71.66 89.72,71.07 C90.97,70.48 92.46,71.01 93.05,72.26 L95.58,77.61 C96.17,78.86 95.64,80.35 94.39,80.94 C94.05,81.1 93.68,81.18 93.32,81.18 Z" fill="#FFFFFF"/>
  <path d="M77.18,63.91 C76.39,63.91 75.61,63.53 75.12,62.83 L70.52,56.17 C69.74,55.03 70.02,53.48 71.16,52.69 C72.3,51.9 73.85,52.19 74.64,53.33 L79.24,59.99 C80.02,61.13 79.74,62.68 78.6,63.47 C78.17,63.77 77.67,63.91 77.18,63.91 Z" fill="#FFFFFF"/>
  <path d="M44.43,69.48 C47.43,69.71 73.57,65.44 64.23,44.8 C57.01,28.83 36.73,42.83 32.98,48.37 C32.3,49.38 31.06,65.26 31.06,65.26 C31.06,65.26 22.04,78.21 25,85.39 C27.96,92.57 36.74,93.93 42.03,87.78 C46.4,82.72 44.85,71.88 44.43,69.48 Z" fill="#FF615E"/>
  <path d="M35.13,38.23 C37.21,35.01 44,28.23 54.7,27.81 C65.4,27.39 70.89,29.5 72.86,30.34 C74.83,31.18 80.46,34 80.46,34 C80.46,34 91.04,29 90.62,18.02 C90.2,7.04 78.92,6.27 74.55,8.67 C70.18,11.07 69.48,14.58 66.24,14.72 C63,14.86 60.47,6.98 50.33,10.92 C41.7,14.28 44.48,22.55 41.32,24.58 C37.8,26.83 30.2,22.05 24.85,29.51 C19.5,36.97 26.12,43.73 27.52,44.86 C28.93,45.99 33.57,48.57 33.57,48.57 C33.57,48.57 32.04,43.02 35.13,38.23 Z" fill="#FF615E"/>
  <path d="M41.42,65.07 C42.72,64.38 41.7,58.78 38.51,54.37 C35.32,49.96 32.88,48.08 32.88,48.08 C32.88,48.08 21.34,50.71 13.92,54.84 C9.78,57.15 4.68,62.21 5.24,64.08 C5.8,65.96 16.43,65.47 25.37,65.21 C34.85,64.93 39.83,65.92 41.42,65.07 Z" fill="#FBBB02"/>
  <path d="M5.19,63.34 C5.19,63.34 15.94,62.59 20.77,61.93 C25.6,61.27 28.73,60.82 30.58,60.38 C32.55,59.91 36.77,58.69 36.77,58.69 L37.05,60.66 C37.05,60.66 26.82,62.96 20.91,63.48 C15.71,63.93 7.21,64.56 6.5,64.56 C5.79,64.56 5.37,64.23 5.19,64 C5.01,63.77 5.19,63.34 5.19,63.34 Z" fill="#FE5F12"/>
  <path d="M39.45,59.51 A1.62 1.67 0 1 1 36.21,59.51 A1.62 1.67 0 1 1 39.45,59.51 Z" fill="#FE5F12"/>
  <path d="M56.15,54.6 C55.39,58.02 52.31,60.38 48.37,58.97 C45.44,57.92 44.36,54.37 45.47,51.05 C46.58,47.73 49.76,46.2 52.81,46.82 C55.88,47.43 56.91,51.18 56.15,54.6 Z" fill="#2C2B2C"/>
</svg>
